X: 20462
T: John Joe McElroy's Fling
R: strathspey
M: 4/4
K: Cmajor
(3cBA|:GCEA GCEA|GCEG cd (3cBA|GCEA GCEC|(3G,G,G, B,D (3FFE FA|
GCEA GCEA|GCEG (3ccB cd|(3efe de cc (3BAG|cAGE DDEG:|
(3cdc Bc AGEG|(3ccc Bc AAAB|(3ccc Bc AcGE|(3DDE FG AA (3GAB|
ceBc AGEG|(3ccc Bc AAAc|BddB (3AAG EC|DDEF Gd (3cBA:|

